X:7
T:The Mason's Apron
R:reel
M:C
L:1/8
K:A
(3(efg) | "A" aA   ~A2   cBAF | EFAB       cABc | "Bm" dB ~B2 dcBA | GABc     defg |
          "A" aA   ~A2   cBAF | EFAB       cABc | "D" dcde    fefa | "E" edcB   A2 :|
ed      | "A" (3(cBA) eA fAeA | (3(cBA) eA fedc | "Bm" dBfB   gBfB | "E" dBfB gfed |
        | "A" (3(cBA) eA fAeA | (3(cBA) eA fedc | "D" dcde    fefa | "E" edcB   A2 :|
